src/assets/images/logo.svg

<?xml version="1.0" encoding="UTF-8"?>
<svg width="263px" height="85px" viewBox="0 0 263 85" version="1.1" xmlns="http://www.w3.org/2000/svg" xmlns:xlink="http://www.w3.org/1999/xlink">
    <title>taikai-logo-1</title>
    <defs>
        <linearGradient x1="-65.6172077%" y1="79.5796959%" x2="79.9927064%" y2="9.66380455%" id="linearGradient-1">
            <stop stop-color="#EF5867" offset="0%"></stop>
            <stop stop-color="#5031A8" offset="100%"></stop>
        </linearGradient>
        <rect id="path-2" x="0" y="0" width="250" height="43.24"></rect>
        <linearGradient x1="14.6%" y1="85.4%" x2="85.4%" y2="14.6%" id="linearGradient-4">
            <stop stop-color="#EF5867" offset="0%"></stop>
            <stop stop-color="#5031A8" offset="100%"></stop>
        </linearGradient>
    </defs>
    <g id="Page-1" stroke="none" stroke-width="1" fill="none" fill-rule="evenodd">
        <g id="taikai-logo-1">
            <g id="Group" transform="translate(131.000000, 50.000000)">
                <rect id="Rectangle" fill="url(#linearGradient-1)" x="0" y="2" width="121" height="30"></rect>
                <text id="LANCE" font-family="Poppins-Regular, Poppins" font-size="25" font-weight="normal" letter-spacing="4.75757583" fill="#FFFFFF">
                    <tspan x="11" y="26">LANCE</tspan>
                </text>
            </g>
            <mask id="mask-3" fill="white">
                <use xlink:href="#path-2"></use>
            </mask>
            <g id="Rectangle"></g>
            <g id="logo" mask="url(#mask-3)" fill="url(#linearGradient-4)" fill-rule="nonzero">
                <path d="M19.7,5.506 L19.7,40.4 C19.7195372,41.1453385 19.4299936,41.8655784 18.9,42.39 C18.3967788,42.9110921 17.7003304,43.2006756 16.976,43.19 C16.2327376,43.2052699 15.5155923,42.9157634 14.9912394,42.3887661 C14.4668866,41.8617687 14.1809913,41.1431762 14.2,40.4 L14.2,5.506 L2.786,5.506 C2.05273853,5.51277782 1.34753444,5.22449817 0.829,4.706 C0.292883335,4.21252721 -0.008459218,3.51460477 5.19874942e-16,2.786 C-0.0177719404,2.03639964 0.283562919,1.31450455 0.829,0.8 C1.34753444,0.281501832 2.05273853,-0.00677781727 2.786,-0.000116869258 L31.179,-0.000116869258 C31.9122615,-0.00677781727 32.6174656,0.281501832 33.136,0.8 C33.6824873,1.3154439 33.9839162,2.03901865 33.965,2.79 C33.9745994,3.51999214 33.6731606,4.21959206 33.136,4.714 C32.6174656,5.23249817 31.9122615,5.52077782 31.179,5.514 L19.7,5.506 Z M83.165,41.793 C83.6057996,42.5410927 84.3651151,43.0459283 85.2254967,43.162934 C86.0858784,43.2799396 86.952433,42.9962106 87.577,42.393 C88.1141606,41.8985921 88.4155994,41.1989921 88.4062225,40.469 C88.400507,40.0846836 88.3329705,39.7037778 88.206,39.341 C88.1173333,39.2523333 81.7046667,26.626 68.968,1.462 C68.6088371,0.540530829 67.7008172,-0.0481721053 66.713,5.07840298e-16 C65.6886164,-0.053684642 64.7481395,0.564389291 64.391,1.526 L45.22,39.339 C45.0441222,39.688904 44.9533268,40.0753841 44.9547775,40.467 C44.9454006,41.1969921 45.2468394,41.8965921 45.784,42.391 C46.302598,42.9094025 47.0077602,43.197665 47.741,43.1912851 L65.984,43.1912851 C66.7083304,43.2016756 67.4047788,42.9120921 67.908,42.391 C68.4379936,41.8665784 68.7275372,41.1463385 68.708,40.401 C68.7085311,39.6794485 68.4221311,38.9872972 67.911917,38.477083 C67.4017028,37.9668689 66.7095515,37.6804689 65.988,37.681 L52.252,37.681 L66.713,9.221 L83.165,41.793 Z M111.56,-0.000145986916 C110.825702,-0.00758603202 110.119265,0.28075525 109.6,0.8 C109.053513,1.3154439 108.752084,2.03901865 108.771,2.79 L108.771,40.4 C108.752084,41.1509813 109.053513,41.8745561 109.6,42.39 C110.688026,43.4532851 112.425974,43.4532851 113.514,42.39 C114.060487,41.8745561 114.361916,41.1509813 114.343,40.4 L114.343,2.786 C114.361547,2.03685862 114.061332,1.31503382 113.517,0.8 C112.998466,0.281501832 112.293261,-0.00677781727 111.56,-0.000145986916 Z M166.308,0.008 C165.559076,-0.0530849634 164.819518,0.207251172 164.274,0.724 L140.474,22.137 L140.474,2.832 C140.492661,2.08106629 140.191274,1.35759122 139.645,0.842 C138.556974,-0.221285144 136.819026,-0.221285144 135.731,0.842 C135.184726,1.35759122 134.883339,2.08106629 134.902,2.832 L134.902,40.446 C134.883211,41.1969575 135.184619,41.9204824 135.731,42.436 C136.819026,43.4992851 138.556974,43.4992851 139.645,42.436 C140.191381,41.9204824 140.492789,41.1969575 140.474,40.446 L140.474,29.646 L146.137,24.546 L164.157,42.434 C164.232261,42.6002315 164.37975,42.7226473 164.557,42.766 C165.084284,43.1189724 165.715603,43.2828827 166.348,43.231 C167.00259,43.1897063 167.617835,42.9042099 168.072,42.431 C168.598061,41.9562501 168.899437,41.2816053 168.902,40.573 C168.938584,39.863374 168.686031,39.1692133 168.202,38.649 L168.002,38.449 L150.3,20.809 L168,4.864 C168.57068,4.37536296 168.906636,3.66709263 168.924,2.916 C168.96201,2.18472946 168.704761,1.46882711 168.21,0.929 C167.725379,0.379627828 167.040493,0.0478127057 166.309,0.008 L166.308,0.008 Z M247.214,-0.000120742981 C246.480739,-0.00677781727 245.775534,0.281501832 245.257,0.8 C244.710513,1.3154439 244.409084,2.03901865 244.428,2.79 L244.428,40.4 C244.409084,41.1509813 244.710513,41.8745561 245.257,42.39 C246.345026,43.4532851 248.082974,43.4532851 249.171,42.39 C249.717487,41.8745561 250.018916,41.1509813 250,40.4 L250,2.786 C250.017772,2.03639964 249.716437,1.31450455 249.171,0.8 C248.652529,0.281406118 247.947283,-0.00689069957 247.214,-0.000120742981 L247.214,-0.000120742981 Z M218.814,41.793 C219.254845,42.5407398 220.013949,43.0453132 220.874049,43.1623071 C221.734149,43.2793009 222.600447,42.9958204 223.225,42.393 C223.762161,41.8985921 224.063599,41.1989921 224.054222,40.469 C224.04842,40.084692 223.980886,39.7038 223.854,39.341 C223.765333,39.2523333 217.352667,26.626 204.616,1.462 C204.25672,0.540168214 203.348177,-0.0486127441 202.36,6.60062283e-16 C201.335616,-0.053684642 200.39514,0.564389291 200.038,1.526 L180.866,39.339 C180.690122,39.688904 180.599327,40.0753841 180.600778,40.467 C180.591401,41.1969921 180.892839,41.8965921 181.43,42.391 C181.948534,42.9094982 182.653739,43.1977778 183.387,43.1912788 L201.63,43.1912788 C202.354307,43.2015556 203.05071,42.9119911 203.554,42.391 C204.083994,41.8665784 204.373537,41.1463385 204.354,40.401 C204.354531,39.6794485 204.068131,38.9872972 203.557917,38.477083 C203.047703,37.9668689 202.355552,37.6804689 201.634,37.681 L187.9,37.681 L202.36,9.221 L218.814,41.793 Z" id="Path_173"></path>
            </g>
        </g>
    </g>
</svg>

<svg xmlns="http://www.w3.org/2000/svg" xmlns:xlink="http://www.w3.org/1999/xlink" width="250" height="43.24" viewBox="0 0 250 43.24">
  <defs>
    <clipPath id="clip-path">
      <rect width="250" height="43.24" fill="none"/>
    </clipPath>
    <linearGradient id="linear-gradient" x1="0.146" y1="0.854" x2="0.854" y2="0.146" gradientUnits="objectBoundingBox">
      <stop offset="0" stop-color="#ef5867"/>
      <stop offset="1" stop-color="#5031a8"/>
    </linearGradient>
  </defs>
  <g id="logo" clip-path="url(#clip-path)">
    <path id="Path_173" data-name="Path 173" d="M19.7,5.506V40.4a2.7,2.7,0,0,1-.8,1.99,2.621,2.621,0,0,1-1.924.8A2.721,2.721,0,0,1,14.2,40.4V5.506H2.786a2.732,2.732,0,0,1-1.957-.8A2.569,2.569,0,0,1,0,2.786,2.644,2.644,0,0,1,.829.8,2.732,2.732,0,0,1,2.786,0H31.179a2.732,2.732,0,0,1,1.957.8,2.644,2.644,0,0,1,.829,1.99,2.569,2.569,0,0,1-.829,1.924,2.732,2.732,0,0,1-1.957.8ZM83.165,41.793a2.835,2.835,0,0,0,4.412.6,2.569,2.569,0,0,0,.829-1.924,3.569,3.569,0,0,0-.2-1.128q-.133-.133-19.238-37.879A2.3,2.3,0,0,0,66.713,0a2.346,2.346,0,0,0-2.322,1.526L45.22,39.339a2.488,2.488,0,0,0-.265,1.128,2.569,2.569,0,0,0,.829,1.924,2.733,2.733,0,0,0,1.957.8H65.984a2.621,2.621,0,0,0,1.924-.8,2.7,2.7,0,0,0,.8-1.99,2.718,2.718,0,0,0-2.72-2.72H52.252L66.713,9.221ZM111.56,0A2.732,2.732,0,0,0,109.6.8a2.644,2.644,0,0,0-.829,1.99V40.4a2.644,2.644,0,0,0,.829,1.99,2.8,2.8,0,0,0,3.914,0,2.644,2.644,0,0,0,.829-1.99V2.786A2.644,2.644,0,0,0,113.517.8,2.732,2.732,0,0,0,111.56,0Zm54.748.008a2.645,2.645,0,0,0-2.034.716l-23.8,21.413V2.832a2.646,2.646,0,0,0-.829-1.99,2.8,2.8,0,0,0-3.914,0,2.646,2.646,0,0,0-.829,1.99V40.446a2.645,2.645,0,0,0,.829,1.99,2.8,2.8,0,0,0,3.914,0,2.645,2.645,0,0,0,.829-1.99v-10.8l5.663-5.1,18.02,17.888a.594.594,0,0,0,.4.332,2.807,2.807,0,0,0,1.791.465,2.618,2.618,0,0,0,1.724-.8,2.515,2.515,0,0,0,.83-1.858,2.626,2.626,0,0,0-.7-1.924l-.2-.2L150.3,20.809,168,4.864a2.645,2.645,0,0,0,.924-1.948A2.731,2.731,0,0,0,168.21.929,2.733,2.733,0,0,0,166.309.008ZM247.214,0a2.732,2.732,0,0,0-1.957.8,2.644,2.644,0,0,0-.829,1.99V40.4a2.644,2.644,0,0,0,.829,1.99,2.8,2.8,0,0,0,3.914,0A2.644,2.644,0,0,0,250,40.4V2.786A2.644,2.644,0,0,0,249.171.8,2.731,2.731,0,0,0,247.214,0Zm-28.4,41.793a2.835,2.835,0,0,0,4.411.6,2.569,2.569,0,0,0,.829-1.924,3.574,3.574,0,0,0-.2-1.128q-.133-.133-19.238-37.879A2.3,2.3,0,0,0,202.36,0a2.346,2.346,0,0,0-2.322,1.526L180.866,39.339a2.488,2.488,0,0,0-.265,1.128,2.569,2.569,0,0,0,.829,1.924,2.732,2.732,0,0,0,1.957.8H201.63a2.622,2.622,0,0,0,1.924-.8,2.7,2.7,0,0,0,.8-1.99,2.718,2.718,0,0,0-2.72-2.72H187.9L202.36,9.221Z" transform="translate(0 0)" fill="url(#linear-gradient)"/>
  </g>
</svg>
